X: 33344
T: Queen Of May, The
R: reel
M: 4/4
K: Edorian
(Be2)(fe2) dB|A2FD FAAc|Bdde d2ec|dBA=c B(E E2):|
((3Bcd) eg (fd)ec|defg afed|((3Bcd) eg (fd)ec|dBA=c B(E E2)|
((3Bcd) eg fdec|defg afdf|g2ge f2fe|dBA=c BEE2||

